X:1
T:Title
%%score 1 2 3
L:1/8
M:2/2
K:C
V:1 treble nm="Part_1"
V:2 treble nm="Part_2"
V:3 treble-8 nm="Part_3"
V:1
 c8 | d8 | c4 e4- | e2 f2 g4 | f6 ed | c8 | d8 | e4 f4- | f2 e2 e4- | e4 d4 | e4 z4 | A4 B4- | %12
 B2 c4 BA | G6 c2- | c2 A4 d2- | d2 cB A2 d2 | e2 g4 fe | f6 d2- | dc d2 e2 c2- | cBAG A4 | %20
 (B4 (3:2:1e6 | (3e2) d2 c2 d4 | e8 | z4 d4 | e8 | f4 g4- | g4 e4 | f6 ed | c4 f4- | f2 e2 e4- | %30
 e2 d2 d4- | d4 c4 | d4 z4 | d4 f4- | f2 ed c2 d2- | d2 cB A2 d2 | e2 g3 f g2 | f2 d4 f2 | %38
 e2 c3 B d2- | dcBA B4 | c8 |] %41
V:2
 C8 | B,8 | C8- | C8 | D8 | E8 | (3F8 E2 D2 | C4 D4 | E4 G4 | F8 | E8 | z4 D4 | E8- | E8 | F8 | %15
 D8 | C8 | D8 | F4 E4- | E4 F4 | G8 | F8 | E4 z4 | D4 F4 | G4 A4- | A4 G2 G2- | GF ED C4 | %27
 D3 E F2 G2 | A8 | G8 | F4 D4 | E8 | D8 | z4 D4 | F8 | F8 | E8 | D8 | E4 F4 | D8 | C8 |] %41
V:3
 C8 | G8 | A4 A4- | A2 GF E4 | D8 | A8 | z4 D4 | A4 d4 | c2 BA G2 c2 | d8 | c6 A2- | A2 GF G4 | %12
 z2 C4 c2- | c2 BA G2 A2 | F6 D2 | G4 F2 B2 | A2 GF E4 | D3 E F2 G2 | A2 B2 c2 A2- | AG FE D4 | %20
 z4 C4 | D2 d3 c d2 | A3 G E2 G2- | GABc d4 | c4 A4 | d4 z4 | G4 A4 | D2 d4 cB | A4 D4 | E4 C4 | %30
 D8 | A8 | D2 G4 A2 | B2 c2 d4- | d2 cB A2 B2- | B2 AG F2 D2 | C4 c4 | d2 B3 c d2 | c2 A3 G _B2- | %39
 BAGF G4 | C8 |] %41

